src/asset/cabinet/loading.svg

<svg width="24" height="24" viewBox="0 0 24 24" fill="none" xmlns="http://www.w3.org/2000/svg">
<mask id="path-1-inside-1" fill="white">
<path fill-rule="evenodd" clip-rule="evenodd" d="M12 4.96C13.5813 4.96 15.1166 5.49239 16.3584 6.47137C17.6003 7.45035 18.4763 8.81892 18.8455 10.3565C19.2146 11.8942 19.0554 13.5113 18.3933 14.9474C17.7313 16.3834 16.6051 17.5548 15.1961 18.2727C13.7871 18.9906 12.1775 19.2132 10.6266 18.9047C9.07562 18.5962 7.67372 17.7746 6.64674 16.5721C5.61976 15.3697 5.02751 13.8565 4.96543 12.2764C4.90336 10.6966 5.37489 9.14183 6.30405 7.86265C6.30421 7.86242 6.30437 7.8622 6.30453 7.86198L5.52788 7.2977C5.52767 7.29799 5.52746 7.29827 5.52726 7.29856C5.33014 7.56994 5.15115 7.85224 4.99084 8.14359C4.29251 9.41282 3.94881 10.854 4.00617 12.3141C4.07671 14.1096 4.74972 15.8292 5.91675 17.1956C7.08377 18.562 8.67685 19.4957 10.4393 19.8463C12.2017 20.1968 14.0308 19.9439 15.6319 19.1281C17.233 18.3123 18.5128 16.9812 19.2651 15.3493C20.0175 13.7174 20.1985 11.8797 19.779 10.1324C19.3595 8.38514 18.3639 6.82995 16.9528 5.71747C15.8053 4.81286 14.4373 4.24381 13 4.06273C12.6697 4.02112 12.3358 4 12 4V4.96Z"/>
</mask>
<path fill-rule="evenodd" clip-rule="evenodd" d="M12 4.96C13.5813 4.96 15.1166 5.49239 16.3584 6.47137C17.6003 7.45035 18.4763 8.81892 18.8455 10.3565C19.2146 11.8942 19.0554 13.5113 18.3933 14.9474C17.7313 16.3834 16.6051 17.5548 15.1961 18.2727C13.7871 18.9906 12.1775 19.2132 10.6266 18.9047C9.07562 18.5962 7.67372 17.7746 6.64674 16.5721C5.61976 15.3697 5.02751 13.8565 4.96543 12.2764C4.90336 10.6966 5.37489 9.14183 6.30405 7.86265C6.30421 7.86242 6.30437 7.8622 6.30453 7.86198L5.52788 7.2977C5.52767 7.29799 5.52746 7.29827 5.52726 7.29856C5.33014 7.56994 5.15115 7.85224 4.99084 8.14359C4.29251 9.41282 3.94881 10.854 4.00617 12.3141C4.07671 14.1096 4.74972 15.8292 5.91675 17.1956C7.08377 18.562 8.67685 19.4957 10.4393 19.8463C12.2017 20.1968 14.0308 19.9439 15.6319 19.1281C17.233 18.3123 18.5128 16.9812 19.2651 15.3493C20.0175 13.7174 20.1985 11.8797 19.779 10.1324C19.3595 8.38514 18.3639 6.82995 16.9528 5.71747C15.8053 4.81286 14.4373 4.24381 13 4.06273C12.6697 4.02112 12.3358 4 12 4V4.96Z" fill="currentColor" fill-opacity="0.87"/>
<path d="M16.3584 6.47137L16.9775 5.68605V5.68605L16.3584 6.47137ZM12 4.96H11V5.96H12V4.96ZM18.8455 10.3565L17.8731 10.59V10.59L18.8455 10.3565ZM18.3933 14.9474L19.3015 15.366V15.366L18.3933 14.9474ZM15.1961 18.2727L15.6501 19.1637H15.6501L15.1961 18.2727ZM10.6266 18.9047L10.8216 17.9239H10.8216L10.6266 18.9047ZM4.96543 12.2764L5.96466 12.2371L4.96543 12.2764ZM6.30405 7.86265L5.49509 7.27478L5.49496 7.27495L6.30405 7.86265ZM6.30453 7.86198L7.11349 8.44984L7.70141 7.64081L6.89232 7.05296L6.30453 7.86198ZM5.52788 7.2977L6.11566 6.48869L5.30647 5.90077L4.71873 6.71009L5.52788 7.2977ZM5.52726 7.29856L6.33635 7.88624L6.3364 7.88617L5.52726 7.29856ZM4.99084 8.14359L5.86698 8.62565L4.99084 8.14359ZM4.00617 12.3141L3.00694 12.3533L4.00617 12.3141ZM10.4393 19.8463L10.2442 20.8271H10.2442L10.4393 19.8463ZM15.6319 19.1281L16.0859 20.0191H16.0859L15.6319 19.1281ZM19.2651 15.3493L18.357 14.9306V14.9306L19.2651 15.3493ZM19.779 10.1324L18.8066 10.3659V10.3659L19.779 10.1324ZM16.9528 5.71747L17.5718 4.93215L16.9528 5.71747ZM13 4.06273L12.875 5.05489L13 4.06273ZM12 4V3H11V4H12ZM16.9775 5.68605C15.5593 4.56801 13.8059 3.96 12 3.96V5.96C13.3567 5.96 14.6739 6.41676 15.7393 7.25669L16.9775 5.68605ZM19.8179 10.1231C19.3963 8.36706 18.3958 6.8041 16.9775 5.68605L15.7393 7.25669C16.8048 8.09661 17.5564 9.27078 17.8731 10.59L19.8179 10.1231ZM19.3015 15.366C20.0575 13.726 20.2394 11.8791 19.8179 10.1231L17.8731 10.59C18.1898 11.9092 18.0532 13.2966 17.4852 14.5287L19.3015 15.366ZM15.6501 19.1637C17.2592 18.3438 18.5454 17.0061 19.3015 15.366L17.4852 14.5287C16.9172 15.7608 15.9509 16.7658 14.7421 17.3817L15.6501 19.1637ZM10.4315 19.8855C12.2027 20.2378 14.041 19.9836 15.6501 19.1637L14.7421 17.3817C13.5333 17.9976 12.1523 18.1886 10.8216 17.9239L10.4315 19.8855ZM5.88633 17.2216C7.05919 18.5948 8.66023 19.5332 10.4315 19.8855L10.8216 17.9239C9.49102 17.6593 8.28825 16.9543 7.40714 15.9227L5.88633 17.2216ZM3.9662 12.3156C4.0371 14.1202 4.71347 15.8483 5.88633 17.2216L7.40714 15.9227C6.52604 14.891 6.01792 13.5928 5.96466 12.2371L3.9662 12.3156ZM5.49496 7.27495C4.43382 8.73584 3.89532 10.5114 3.9662 12.3156L5.96466 12.2371C5.91141 10.8817 6.31596 9.54782 7.11313 8.45034L5.49496 7.27495ZM5.49557 7.27412C5.49546 7.27427 5.49535 7.27442 5.49527 7.27453C5.49519 7.27465 5.49514 7.27472 5.49509 7.27478L7.11301 8.45051C7.11312 8.45035 7.11323 8.4502 7.11331 8.4501C7.11339 8.44998 7.11345 8.44991 7.11349 8.44984L5.49557 7.27412ZM6.89232 7.05296L6.11566 6.48869L4.94009 8.10672L5.71675 8.671L6.89232 7.05296ZM6.3364 7.88617C6.33644 7.88612 6.33648 7.88606 6.33659 7.8859C6.33669 7.88577 6.33685 7.88555 6.33702 7.88531L4.71873 6.71009C4.7187 6.71014 4.71865 6.71021 4.71854 6.71036C4.71844 6.71049 4.71828 6.71071 4.71811 6.71095L6.3364 7.88617ZM5.86698 8.62565C6.00724 8.37073 6.16386 8.12372 6.33635 7.88624L4.71816 6.71088C4.49642 7.01617 4.29505 7.33375 4.1147 7.66154L5.86698 8.62565ZM5.0054 12.2748C4.95521 10.9973 5.25594 9.73623 5.86698 8.62565L4.1147 7.66154C3.32908 9.08942 2.94241 10.7107 3.00694 12.3533L5.0054 12.2748ZM6.67715 16.5461C5.65601 15.3505 5.06713 13.8459 5.0054 12.2748L3.00694 12.3533C3.0863 14.3733 3.84344 16.3078 5.15634 17.845L6.67715 16.5461ZM10.6344 18.8655C9.09224 18.5587 7.6983 17.7417 6.67715 16.5461L5.15634 17.845C6.46924 19.3822 8.26145 20.4327 10.2442 20.8271L10.6344 18.8655ZM15.1779 18.237C13.777 18.9509 12.1765 19.1722 10.6344 18.8655L10.2442 20.8271C12.2269 21.2215 14.2847 20.9368 16.0859 20.0191L15.1779 18.237ZM18.357 14.9306C17.6987 16.3585 16.5789 17.5232 15.1779 18.237L16.0859 20.0191C17.8871 19.1013 19.3269 17.6038 20.1733 15.7679L18.357 14.9306ZM18.8066 10.3659C19.1736 11.8948 19.0153 13.5027 18.357 14.9306L20.1733 15.7679C21.0196 13.9321 21.2233 11.8647 20.7513 9.899L18.8066 10.3659ZM16.3337 6.50278C17.5684 7.47621 18.4395 8.837 18.8066 10.3659L20.7513 9.899C20.2794 7.93328 19.1594 6.18369 17.5718 4.93215L16.3337 6.50278ZM12.875 5.05489C14.1326 5.21333 15.3296 5.71126 16.3337 6.50278L17.5718 4.93215C16.2809 3.91445 14.742 3.27429 13.125 3.07058L12.875 5.05489ZM12 5C12.2938 5 12.586 5.01848 12.875 5.05489L13.125 3.07058C12.7534 3.02376 12.3777 3 12 3V5ZM13 4.96V4H11V4.96H13Z" fill="currentColor" fill-opacity="0.87" mask="url(#path-1-inside-1)"/>
</svg>

<svg width="24" height="24" fill="none" xmlns="http://www.w3.org/2000/svg"><mask id="a" fill="#fff"><path fill-rule="evenodd" clip-rule="evenodd" d="M12 4.96a7.04 7.04 0 11-5.695 2.902l-.777-.564A8 8 0 1012 4v.96z"/></mask><path fill-rule="evenodd" clip-rule="evenodd" d="M12 4.96a7.04 7.04 0 11-5.695 2.902l-.777-.564A8 8 0 1012 4v.96z" fill="currentColor" fill-opacity=".87"/><path d="M16.358 6.471l.62-.785-.62.785zM12 4.96h-1v1h1v-1zm6.846 5.397l-.973.233.973-.233zm-.453 4.59l.909.419-.909-.419zm-3.197 3.326l.454.89-.454-.89zm-4.57.632l.196-.981-.195.98zm-5.66-6.629l.999-.039-1 .04zm1.338-4.413l-.809-.588.809.588zm0-.001l.81.588.587-.81-.809-.587-.587.809zm-.776-.564l.588-.81-.81-.587-.587.81.809.587zm0 0l.808.588-.809-.587zm-.537.846l.876.482-.876-.482zm-.985 4.17l-1 .04 1-.04zm6.433 7.532l-.195.981.195-.98zm5.193-.718l.454.891-.454-.89zm3.633-3.779l-.908-.418.908.418zm.514-5.217l-.972.234.972-.234zm-2.826-4.415l.619-.785-.62.785zM13 4.063l-.125.992.125-.992zM12 4V3h-1v1h1zm4.977 1.686A8.04 8.04 0 0012 3.96v2a6.04 6.04 0 013.74 1.297l1.237-1.57zm2.84 4.437a8.04 8.04 0 00-2.84-4.437l-1.238 1.57a6.04 6.04 0 012.134 3.334l1.945-.467zm-.515 5.243a8.04 8.04 0 00.516-5.243l-1.945.467a6.04 6.04 0 01-.388 3.939l1.817.837zm-3.652 3.798a8.04 8.04 0 003.652-3.798l-1.817-.837a6.04 6.04 0 01-2.743 2.853l.908 1.782zm-5.219.721a8.04 8.04 0 005.22-.721l-.909-1.782a6.04 6.04 0 01-3.92.542l-.39 1.962zm-4.545-2.663a8.04 8.04 0 004.545 2.663l.39-1.961a6.04 6.04 0 01-3.414-2.001l-1.52 1.299zm-1.92-4.906a8.04 8.04 0 001.92 4.906l1.521-1.3a6.04 6.04 0 01-1.442-3.685l-1.999.079zm1.529-5.041a8.04 8.04 0 00-1.529 5.04l1.999-.078A6.04 6.04 0 017.113 8.45L5.495 7.275zm0 0L7.113 8.45V8.45L5.496 7.274zm1.397-.222l-.776-.564L4.94 8.107l.777.564 1.175-1.618zm-.556.833h.001L4.719 6.71v.001l1.617 1.175zm-.469.74a7 7 0 01.47-.74L4.717 6.711a9 9 0 00-.603.95l1.752.965zm-.862 3.649a7 7 0 01.862-3.65l-1.752-.963a9 9 0 00-1.108 4.691l1.998-.078zm1.672 4.271a7 7 0 01-1.672-4.271l-1.998.078a9 9 0 002.15 5.492l1.52-1.299zm3.957 2.32a7 7 0 01-3.957-2.32l-1.52 1.299a9 9 0 005.087 2.982l.39-1.962zm4.544-.629a7 7 0 01-4.544.629l-.39 1.961a9 9 0 005.842-.808l-.908-1.782zm3.179-3.306a7 7 0 01-3.18 3.306l.909 1.782a9 9 0 004.087-4.251l-1.816-.837zm.45-4.565a7 7 0 01-.45 4.565l1.816.837a9 9 0 00.578-5.869l-1.944.467zm-2.473-3.863a7 7 0 012.473 3.863l1.944-.467a9 9 0 00-3.18-4.967l-1.237 1.57zm-3.459-1.448a7 7 0 013.459 1.448l1.238-1.57a9 9 0 00-4.447-1.862l-.25 1.984zM12 5a7 7 0 01.875.055l.25-1.984A9 9 0 0012 3v2zm1-.04V4h-2v.96h2z" fill="currentColor" fill-opacity=".87" mask="url(#a)"/></svg>
